X:1
T:Americarabia
T:Americarabia
T:By HARRY JENTES
T:Copyright 1924 by Harry Jentes
T:Copyright 1924 by Harry Jentes
T:Copyright 1924 by Harry Jentes
T:Copyright 1924 by Harry Jentes
C:By HARRY JENTES
Z:Copyright 1924 by Harry Jentes
%%score { ( 1 3 ) | 2 }
L:1/8
Q:1/4=180
M:2/2
K:Bb
V:1 treble nm="Piano" snm="Pno."
V:3 treble 
V:2 bass 
V:1
S"^Allegro Moderato"!mf! G>ge>c G>ge>c | ^F>^fe>c F>fe>c | =F>=fe>c F>fe>c | F>fe>c F>fe>c || %4
 z3/2 F<B_d/ f>ec>d | (3B_dB F2 z2 d2 | (3cec _A2 (3BcB _G2 | !^!F8- | F8 | z3/2 F<B_d/ f>ec>d | %10
 (3B_dB F2 z2 d2 | (3cec _A2 (3BcB _G2 | !^!F8- | F8 | z3/2 B<e_g/ b>af>g | (3e_ge B2 z2 g2 | %16
 (3f_af _d2 (3efe _c2 | !^!B8- | B8 | z3/2 F<B_d/ f>ec>d | (3B_dB F2 z2 d2 | !^!c4 !^!B4 | !^!F8 || %23
 z3/2 F<[Bdf]F/ z3/2 F<[cef]F/ | z3/2 A<B=B/ g>fe>d | (3edc G>A B [=Bf]2 e | [Gceg]8 | %27
!f!!<(! [CEF]2 [CE^F]2 [CEG]2 [CE^G]2 | [CEA]2 [C=EA]2 [CFA]2!ff! [C^FA]2!<)! | %29
!ff!!>(! [^C^FA]2 [DFA]2 [^DFA]2 [DFB]2 | [^D^F=B]2 [DFc]2 [DGc]2 [DFc]2!>)! |!f! _B4 g4 | f4 g4 | %33
 z3/2 d<[G_B]F/ [^FB] [GBd]2 .[=FAc]- | [FAc]>GA>c [FAcf]2 z2 | z3/2 F<[Bdf]F/ z3/2 F<[cef]F/ | %36
 z3/2 A<B=B/ g>fe>d | (3edc G>A B [=Bf]2 e | [Gceg]6 [Gcg]>e | %39
 [^Fc^f] [Gceg]2 [dgd']- [dgd'] [cgc']2 _a | [=A=a] [Bb]2 [ege']- [ege'] [dgd']2 b | %41
 [=B=b] [cc']2 [G_eg]- [Geg] [Aefa]2 [_Bdf_b]- |1 [Bdfb]2 z2 z4 ||2,3 %43
{/x-} [Bdfb]2 z2 !^![Bdfb]2"^fine" z2!fine! || z3/2 F<B_d/ f>ec>d | (3B_dB F2 z2 d2 | %46
 (3cec _A2 (3BcB _G2 | !^!F8- | F8 | z3/2 F<B_d/ f>ec>d | (3B_dB F2 z2 d2 | (3cec _A2 (3BcB _G2 | %52
 !^!F8- | F8 | z3/2 B<e_g/ b>af>g | (3e_ge B2 z2 g2 | (3f_af _d2 (3efe _c2 | !^!B8- | B8 | %59
 z3/2 F<B_d/ f>ec>d | (3B_dB F2 z2 d2 | c4 B4 | !^!F8 || z3/2 F<[Bdf]F/ z3/2 F<[cef]F/ | %64
 z3/2 A<B=B/ g>fe>d | (3edc G>A B [=Bf]2 e | [Gceg]8 |!f!!<(! [CEF]2 [CE^F]2 [CEG]2 [CE^G]2 | %68
 [CEA]2 [C=EA]2 [CFA]2!ff! [C^FA]2!<)! |!ff!!>(! [^C^FA]2 [DFA]2 [^DFA]2 [DFB]2 | %70
 [^D^F=B]2 [DFc]2 [DGc]2 [DFc]2!>)! |!f! _B4 g4 | f4 g4 | z3/2 d<[G_B]F/ [^FB] [GBd]2 .[=FAc]- | %74
 [FAc]>GA>c [FAcf]2 z2 | z3/2 F<[Bdf]F/ z3/2 F<[cef]F/ | z3/2 A<B=B/ g>fe>d | %77
 (3edc G>A B [=Bf]2 e | [Gceg]6 [Gg]>e | [^Fc^f] [Gceg]2 [dgd']- [dgd'] [cgc']2 _a | %80
 [=A=a] [Bb]2 [ege']- [ege'] [dgd']2 b | [=B=b] [cc']2 [G_eg]- [Geg] [Aefa]2 [_Bdf_b]- | %82
 [Bdfb]2 z2 z4 |:[K:Ab]!8va(! z3/2 (f<[Gde])(c'/ [dgb]>)(e'[gd'e']>)(c'' | %84
 [d'g'b']>)(f'[gd'e']>)(c' [dgb]>)(f [Gde]2) | z3/2 (f<[_Gce])(b/ [c_ga]>)(f'[ec'e']>)(b' | %86
 [c'_g'a']>)(f'[_gc'e']>)(b [cga]>)(f [_Gce]2)!8va)! | %87
"^loco" z3/2 (c<[DAB])(g/ [A=df]>)(c' [dab]2) | z3/2 (c<[DAB])(g/ [A=df]>)(c' [dab]2) | %89
 [egbe']4 [GB=dg]4 | [c_egc']4 [FAB=d]4 |!8va(! z3/2 (f<[Gde])(c'/ [dgb]>)(e'[gd'e']>)(c'' | %92
 [d'g'b']>)(f'[gd'e']>)(c' [dgb]>)(f [Gde]2) | z3/2 (f<[_Gce])(b/ [c_ga]>)(f'[ec'e']>)(b' | %94
 [c'_g'a']>)(f'[_gc'e']>)(b [cga]>)(f [_Gce]2)!8va)! | %95
"^loco" z3/2 (c<[DAB])(g/ [A=df]>)(c' [dab]2) | z3/2 (f<[G_de])(c'/ [dgb]>)(f' [gd'e']2) | %97
"^+" A>(bA>)(b A>)(bA>)(b |1 A2) z2 z4 :|2 A>(e[Gdf]>)(e [Acea]2) z2 |] %100
"^+ NOTE:""^Optional last two bars for small hands" a>ba>b a>ba>b | %101
 [ca]e(!^![Gdf]e) !^![Acea]2 z2 || %102
V:2
 !arpeggio!!^![C,G,E]2 z2 z2 !arpeggio!!^![C,G,E]2 | !^![^F,CE]2 z2 z2 !^![F,CE]2 | %2
 !^![E,F,A,C]2 z2 z4 | z2 !>![F,,,F,,]2 !>![G,,,G,,]2 !>![A,,,A,,]2 || %4
 [B,,,B,,]2 [F,B,_D]2 [C,,C,]2 [A,CEF]2 | [_D,,_D,]2 [F,B,_D]2 [B,,,B,,]2 [F,B,D]2 | %6
 [_A,,_A,]2 [A,CE]2 [_G,,_G,]2 [G,B,_D]2 | z2 .!^![E,,E,]2 z2 .!^![=D,,=D,]2 | %8
 z2 .!^![_D,,_D,]2 z2 .!^![C,,C,]2 | [B,,,B,,]2 [F,B,_D]2 [C,,C,]2 [A,CEF]2 | %10
 [_D,,_D,]2 [F,B,_D]2 [B,,,B,,]2 [F,B,D]2 | [_A,,_A,]2 [A,CE]2 [_G,,_G,]2 [G,B,_D]2 | %12
 z2 .!^![E,,E,]2 z2 .!^![=D,,=D,]2 | z2 .!^![_D,,_D,]2 z2 .!^![C,,C,]2 | %14
 [E,,E,]2 [B,E_G]2 [F,,F,]2 [_A,B,DF]2 | [_G,,_G,]2 [B,E_G]2 [E,,E,]2 [B,EG]2 | %16
 [F,F]2 [_A,_DF]2 [E,E]2 [_G,_CE]2 | z2 .!^![_A,,_A,]2 z2 .!^![A,,A,]2 | %18
 z2 .!^![_A,,_A,]2 z2 .!^![A,,A,]2 | [B,,,B,,]2 [F,B,_D]2 [C,,C,]2 [A,CEF]2 | %20
 [_D,,_D,]2 [F,B,_D]2 [B,,,B,,]2 [F,B,D]2 | z C, [_E,_B,]2 z B,, [_D,_G,]2 | %22
 z2 !^![F,,,F,,]2 !^![G,,,G,,]2 !^![A,,,A,,]2 || [B,,,B,,]2 [F,B,D]2 [C,,C,]2 [F,A,CE]2 | %24
 [D,,D,]2 [F,B,D]2 [=B,,,=B,,]2 [G,=B,DF]2 | [C,,C,]2 [G,CE]2 [D,,D,]2 [F,=B,D]2 | %26
 [E,,E,]2 [C,C]2 [_C,_C]2 [_B,,_B,]2 | [A,,A,]2 [_A,,_A,]2 [G,,G,]2 [_G,,_G,]2 | %28
 [F,,F,]2 [=E,,=E,]2 [_E,,_E,]2 [D,,D,]2 | [_D,,_D,]2 [C,,C,]2 [_C,,_C,]2 [B,,,B,,]2 | %30
 [A,,,A,,]2 [_A,,,_A,,]2 [G,,,G,,]2 [_G,,,_G,,]2 | [F,,,F,,]2 [D,F,B,]2 [_D,,_D,]2 [G,B,_D=E]2 | %32
 [=D,,=D,]2 [F,B,D]2 [=B,,,=B,,]2 [F,=B,D]2 | [G,,G,]2 [F,,F,]2 [=E,,=E,]2 [E,G,_B,C]2 | %34
 [_E,,_E,]2 [E,F,A,C]2 [F,A,CE]2 z2 | [B,,,B,,]2 [F,B,D]2 [C,,C,]2 [F,A,CE]2 | %36
 [D,,D,]2 [F,B,D]2 [=B,,,=B,,]2 [G,=B,DF]2 | [C,,C,]2 [G,CE]2 [D,,D,]2 [F,=B,D]2 | %38
 [E,,E,]2 [G,CE]2 [C,,C,]2 [G,CE]2 | [E,,E,]2 [G,CE]2 [=E,,=E,]2 [G,B,=E]2 | %40
 [=F,,=F,]2 [^F,,^F,]2 [G,,G,]2 [=F,,=F,]2 | [=E,,=E,]2 [G,B,C=E]2 [_E,,_E,]2 [E,F,A,C]2 |1 %42
"^No repeat" [D,,D,]2 [F,,,F,,]2 [G,,,G,,]2 [A,,,A,,]2 ||2,3 %43
 [D,,D,]2 !^!F,,2 !arpeggio!!^![B,,,F,,D,]2 z2 || [B,,,B,,]2 [F,B,_D]2 [C,,C,]2 [A,CEF]2 | %45
 [_D,,_D,]2 [F,B,_D]2 [B,,,B,,]2 [F,B,D]2 | [_A,,_A,]2 [A,CE]2 [_G,,_G,]2 [G,B,_D]2 | %47
 z2 .!^![E,,E,]2 z2 .!^![=D,,=D,]2 | z2 .!^![_D,,_D,]2 z2 .!^![C,,C,]2 | %49
 [B,,,B,,]2 [F,B,_D]2 [C,,C,]2 [A,CEF]2 | [_D,,_D,]2 [F,B,_D]2 [B,,,B,,]2 [F,B,D]2 | %51
 [_A,,_A,]2 [A,CE]2 [_G,,_G,]2 [G,B,_D]2 | z2 .!^![E,,E,]2 z2 .!^![=D,,=D,]2 | %53
 z2 .!^![_D,,_D,]2 z2 .!^![C,,C,]2 | [E,,E,]2 [B,E_G]2 [F,,F,]2 [_A,B,DF]2 | %55
 [_G,,_G,]2 [B,E_G]2 [E,,E,]2 [B,EG]2 | [F,F]2 [_A,_DF]2 [E,E]2 [_G,_CE]2 | %57
 z2 .!^![_A,,_A,]2 z2 .!^![A,,A,]2 | z2 .!^![_A,,_A,]2 z2 .!^![A,,A,]2 | %59
 [B,,,B,,]2 [F,B,_D]2 [C,,C,]2 [A,CEF]2 | [_D,,_D,]2 [F,B,_D]2 [B,,,B,,]2 [F,B,D]2 | %61
 z C, [_E,_B,]2 z B,, [_D,_G,]2 | z2 !^![F,,,F,,]2 !^![G,,,G,,]2 !^![A,,,A,,]2 || %63
 [B,,,B,,]2 [F,B,D]2 [C,,C,]2 [F,A,CE]2 | [D,,D,]2 [F,B,D]2 [=B,,,=B,,]2 [G,=B,DF]2 | %65
 [C,,C,]2 [G,CE]2 [D,,D,]2 [F,=B,D]2 | [E,,E,]2 [C,C]2 [_C,_C]2 [_B,,_B,]2 | %67
 [A,,A,]2 [_A,,_A,]2 [G,,G,]2 [_G,,_G,]2 | [F,,F,]2 [=E,,=E,]2 [_E,,_E,]2 [D,,D,]2 | %69
 [_D,,_D,]2 [C,,C,]2 [_C,,_C,]2 [B,,,B,,]2 | [A,,,A,,]2 [_A,,,_A,,]2 [G,,,G,,]2 [_G,,,_G,,]2 | %71
 [F,,,F,,]2 [D,F,B,]2 [_D,,_D,]2 [G,B,_D=E]2 | [=D,,=D,]2 [F,B,D]2 [=B,,,=B,,]2 [F,=B,D]2 | %73
 [G,,G,]2 [F,,F,]2 [=E,,=E,]2 [E,G,_B,C]2 | [_E,,_E,]2 [E,F,A,C]2 [F,A,CE]2 z2 | %75
 [B,,,B,,]2 [F,B,D]2 [C,,C,]2 [F,A,CE]2 | [D,,D,]2 [F,B,D]2 [=B,,,=B,,]2 [G,=B,DF]2 | %77
 [C,,C,]2 [G,CE]2 [D,,D,]2 [F,=B,D]2 | [E,,E,]2 [G,CE]2 [C,,C,]2 [G,CE]2 | %79
 [E,,E,]2 [G,CE]2 [=E,,=E,]2 [G,B,=E]2 | [=F,,=F,]2 [^F,,^F,]2 [G,,G,]2 [=F,,=F,]2 | %81
 [=E,,=E,]2 [G,B,C=E]2 [_E,,_E,]2 [E,F,A,C]2 | [D,,D,]2 !^![B,,B,]2 !^![A,,A,]2 !^![_A,,_A,]2 |: %83
[K:Ab] !arpeggio![E,,G,]2 [E,G,B,D]2 [B,,,B,,]2 [B,DEG]2 | %84
 [G,,G,]2 [B,DEG]2 [B,,,B,,]2 [E,G,B,D]2 | !arpeggio![E,,_G,]2 [G,CE]2 [A,,,A,,]2 [A,CE_G]2 | %86
 [C,,C,]2 [A,CE_G]2 [A,,,A,,]2 [_G,CE]2 | !arpeggio![B,,,D,]2 [F,A,B,]2 [B,,,B,,]2 [A,B,DF]2 | %88
 !arpeggio![B,,,D,]2 [F,A,B,]2 [B,,,B,,]2 [A,B,DF]2 | %89
 !arpeggio![E,,G,]2 [B,EG]2 !arpeggio![C,,=E,]2 [G,B,C=E]2 | %90
 !arpeggio![F,,=A,]2 [A,C_EF]2 !arpeggio![B,,,D,]2 [F,A,B,=D]2 | %91
 !arpeggio![E,,G,]2 [E,G,B,D]2 [B,,,B,,]2 [B,DEG]2 | [G,,G,]2 [B,DEG]2 [B,,,B,,]2 [E,G,B,D]2 | %93
 !arpeggio![E,,_G,]2 [G,CE]2 [A,,,A,,]2 [A,CE_G]2 | [C,,C,]2 [A,CE_G]2 [A,,,A,,]2 [_G,CE]2 | %95
 !arpeggio![B,,,D,]2 [F,A,B,]2 [B,,,B,,]2 [A,B,DF]2 | %96
 !arpeggio![E,,G,]2 [G,B,_DE]2 [B,,,B,,]2 [B,DEG]2 | z3/2 (E,<_G)(=D,/ F>)(_D,=E>)(C, |1 %98
 _E2) [B,,B,]2 [=A,,=A,]2 [_A,,_A,]2 :|2 (_E>B,,)"^D.S. al fine"(_D>[A,,E,]) C2 z2 |] %100
 z2 [_G,_G]2 [F,F]2 [=E,=E]2 | [_E,_E]2 [_D,_D]2 !^![A,,E,C]2 z2 || %102
V:3
 x8 | x8 | x8 | x8 || x8 | x8 | x8 | z2 !^![=A,CE]2 z2 !^![F,B,=D]2 | %8
 z2 !^![F,B,_D]2 z2 !^![F,A,E]2 | x8 | x8 | x8 | z2 !^![=A,CE]2 z2 !^![F,B,=D]2 | %13
 z2 !^![F,B,_D]2 z2 !^![F,A,E]2 | x8 | x8 | x8 | z2 !^![B,=DF]2 z2 !^![B,DF]2 | %18
 z2 !^![B,DF]2 z2 !^![B,DF]2 | x8 | x8 | z2 !^![C_EA]2 z2 !^![_B,_D_G]2 | z2 [=A,CE]2 z2 [A,CE]2 || %23
 x8 | x8 | x8 | x8 | x8 | x8 | x8 | x8 | z2 [=D=F]2 z2 [GB_e]2 | z2 [FB=d]2 z2 [G=Bd]2 | x8 | x8 | %35
 x8 | x8 | x8 | x8 | x8 | x8 | x8 |1 x8 ||2,3 x8 || x8 | x8 | x8 | z2 !^![=A,CE]2 z2 !^![F,B,=D]2 | %48
 z2 !^![F,B,_D]2 z2 !^![F,A,E]2 | x8 | x8 | x8 | z2 !^![=A,CE]2 z2 !^![F,B,=D]2 | %53
 z2 !^![F,B,_D]2 z2 !^![F,A,E]2 | x8 | x8 | x8 | z2 !^![B,=DF]2 z2 !^![B,DF]2 | %58
 z2 !^![B,DF]2 z2 !^![B,DF]2 | x8 | x8 | z2 [C_EA]2 z2 [_B,_D_G]2 | z2 !^![=A,CE]2 z2 !^![A,CE]2 || %63
 x8 | x8 | x8 | x8 | x8 | x8 | x8 | x8 | z2 [=D=F]2 z2 [GB_e]2 | z2 [FB=d]2 z2 [G=Bd]2 | x8 | x8 | %75
 x8 | x8 | x8 | x8 | x8 | x8 | x8 | x8 |:[K:Ab]!8va(! x8 | x8 | x8 | x8!8va)! | x8 | x8 | x8 | x8 | %91
!8va(! x8 | x8 | x8 | x8!8va)! | x8 | x8 | x8 |1 x8 :|2 x8 |] z2 e2 =d2 _d2 | x8 || %102

